src/assets/media/svg/sprite/forward.svg

<svg xmlns="http://www.w3.org/2000/svg" width="24" height="24"><path d="M1 12c0 6.074 4.926 11 11 11s11-4.926 11-11S18.074 1 12 1 1 5.926 1 12m5-1h8l-3-3 2-1.977L19 12l-6 6-2-2 3-3H6z"/></svg>

<svg width="24" height="24" viewBox="0 0 24 24"  xmlns="http://www.w3.org/2000/svg">
<path d="M1 12C1 18.074 5.926 23 12 23C18.074 23 23 18.074 23 12C23 5.926 18.074 1 12 1C5.926 1 1 5.926 1 12ZM6 11H14L11 8L13 6.023L19 12L13 18L11 16L14 13H6V11Z" />
</svg>
